Origami/32x32/apps/albion-online.svg

<svg width="32" height="32" version="1.1" viewBox="0 0 8.47 8.47" xmlns="http://www.w3.org/2000/svg">
 <g transform="translate(0,-288.53332)">
  <g transform="matrix(.95238181 0 0 .97402677 .2519831 7.9648882)" style="opacity:.2">
   <path d="m3.069165 292.1246h2.222498v3.23498l-1.1112488 1.11124-1.1112492-1.11124z"/>
   <path d="m3.069165 292.1246h1.1112492v4.34622l-1.1112492-1.11124z"/>
  </g>
  <g transform="matrix(.95238181 0 0 .97402677 .2519831 7.7003034)">
   <path d="m3.069165 292.1246h2.222498v3.23498l-1.1112488 1.11124-1.1112492-1.11124z" style="fill:#afafb1"/>
   <path d="m3.069165 292.1246h1.1112492v4.34622l-1.1112492-1.11124z" style="fill:#cccccc"/>
  </g>
  <rect transform="rotate(90)" x="291.44" y="-6.88" width="1.323" height="5.292" rx=".661" ry=".756" style="opacity:.2"/>
  <rect transform="rotate(90)" x="291.18" y="-6.88" width="1.323" height="5.292" rx=".661" ry=".756" style="fill:#ec8a2b"/>
  <rect x="3.44" y="289.33" width="1.587" height="1.852" style="fill:#d13808"/>
  <rect x="2.91" y="289.33" width="2.646" height=".794" rx=".441" ry=".397" style="opacity:.2"/>
  <rect x="2.91" y="289.06" width="2.646" height=".794" rx=".441" ry=".397" style="fill:#ec8a2b"/>
  <path transform="matrix(.26458333 0 0 .26458333 0 288.53332)" d="m8.8574219 10c-1.5828571 0-2.8574219 1.115-2.8574219 2.5 0 0.171146 0.0214996 0.338694 0.0585938 0.5 0.2630898-1.144062 1.4115667-2 2.7988281-2h14.285156c1.387262 0 2.535738 0.855938 2.798828 2 0.037094-0.161306 0.058594-0.328854 0.058594-0.5 0-1.385-1.274565-2.5-2.857422-2.5h-14.285156z" style="fill:#ffffff;opacity:.2"/>
  <path transform="matrix(.26458333 0 0 .26458333 0 288.53332)" d="m12.666016 2c-0.923334 0-1.666016 0.669-1.666016 1.5 0 0.1762674 0.04005 0.3431489 0.101562 0.5 0.22886-0.5819836 0.837472-1 1.564454-1h6.667968c0.726982 0 1.335594 0.4180164 1.564454 1 0.061512-0.1568511 0.101562-0.3237326 0.101562-0.5 0-0.831-0.742682-1.5-1.666016-1.5h-6.667968z" style="fill:#ffffff;opacity:.2"/>
 </g>
</svg>

<svg xmlns="http://www.w3.org/2000/svg" width="32" height="32" version="1.1" viewBox="0 0 8.47 8.47">
 <g transform="translate(0,-288.53332)">
  <g style="opacity:0.2" transform="matrix(0.95238181,0,0,0.97402677,0.2519831,7.9648882)">
   <path d="m 3.069165,292.1246 h 2.222498 v 3.23498 l -1.1112488,1.11124 -1.1112492,-1.11124 z"/>
   <path d="m 3.069165,292.1246 h 1.1112492 v 4.34622 L 3.069165,295.35958 Z"/>
  </g>
  <g transform="matrix(0.95238181,0,0,0.97402677,0.2519831,7.7003034)">
   <path style="fill:#afafb1" d="m 3.069165,292.1246 h 2.222498 v 3.23498 l -1.1112488,1.11124 -1.1112492,-1.11124 z"/>
   <path style="fill:#cccccc" d="m 3.069165,292.1246 h 1.1112492 v 4.34622 L 3.069165,295.35958 Z"/>
  </g>
  <rect style="opacity:0.2" width="1.323" height="5.292" x="291.44" y="-6.88" rx=".661" ry=".756" transform="rotate(90)"/>
  <rect style="fill:#ec8a2b" width="1.323" height="5.292" x="291.18" y="-6.88" rx=".661" ry=".756" transform="rotate(90)"/>
  <rect style="fill:#d13808" width="1.587" height="1.852" x="3.44" y="289.33"/>
  <rect style="opacity:0.2" width="2.646" height=".794" x="2.91" y="289.33" rx=".441" ry=".397"/>
  <rect style="fill:#ec8a2b" width="2.646" height=".794" x="2.91" y="289.06" rx=".441" ry=".397"/>
  <path style="opacity:0.2;fill:#ffffff" d="M 8.8574219 10 C 7.2745648 10 6 11.115 6 12.5 C 6 12.671146 6.0214996 12.838694 6.0585938 13 C 6.3216836 11.855938 7.4701605 11 8.8574219 11 L 23.142578 11 C 24.52984 11 25.678316 11.855938 25.941406 13 C 25.9785 12.838694 26 12.671146 26 12.5 C 26 11.115 24.725435 10 23.142578 10 L 8.8574219 10 z" transform="matrix(0.26458333,0,0,0.26458333,0,288.53332)"/>
  <path style="opacity:0.2;fill:#ffffff" d="M 12.666016 2 C 11.742682 2 11 2.669 11 3.5 C 11 3.6762674 11.04005 3.8431489 11.101562 4 C 11.330422 3.4180164 11.939034 3 12.666016 3 L 19.333984 3 C 20.060966 3 20.669578 3.4180164 20.898438 4 C 20.95995 3.8431489 21 3.6762674 21 3.5 C 21 2.669 20.257318 2 19.333984 2 L 12.666016 2 z" transform="matrix(0.26458333,0,0,0.26458333,0,288.53332)"/>
 </g>
</svg>
